X:366
T: Pan hongjun
N: C1867
O: China, Yunnan Dongchuan
S: II,44]
R: Shange]
M: 3/4
L: 1/16
K: G
B2d2A4d2e2 | g2e2d3B | B2d2A2G2A4 | B2A2G3E | D4z4
D2G2G2A2 | ABG2A4 | B2d2ABG2A4 | ABG2G3E | D8
B2d2A4d2e2 | g2e2d4 | d2d2A2G2A4 | G2A2G4 | D6z2

